lib/flags/mh-marshall-islands.svg

<svg xmlns="http://www.w3.org/2000/svg" fill="none" aria-hidden="true" viewBox="0 0 42 30"><g id="Country=MH - Marshall Islands, Size=sm (36x24)" filter="url(#filter0_dd_91_26524)"><g clip-path="url(#clip0_91_26524)"><g id="flag"><mask id="mask0_91_26524" width="36" height="24" x="3" y="2" maskUnits="userSpaceOnUse" style="mask-type:alpha"><rect id="mask" width="36" height="24" x="3" y="2" fill="white"/></mask><g mask="url(#mask0_91_26524)"><g id="contents"><path id="background" fill="#3D58DB" fill-rule="evenodd" d="M3 2V26H39V2H3Z" clip-rule="evenodd"/><mask id="mask1_91_26524" width="36" height="24" x="3" y="2" maskUnits="userSpaceOnUse" style="mask-type:alpha"><path id="background_2" fill="white" fill-rule="evenodd" d="M3 2V26H39V2H3Z" clip-rule="evenodd"/></mask><g mask="url(#mask1_91_26524)"><path id="Star 16" fill="#F7FCFF" fill-rule="evenodd" d="M12 13L11.0809 15.9441L11.0894 12.8888L9.31079 15.5033L10.2464 12.5633L7.74016 14.6543L9.53343 12.0477L6.48545 13.4601L9.00339 11.3802L5.63974 12.0093L8.69559 10.6104L5.26574 10.4095L8.63287 9.79527L5.39118 8.77926L8.81987 8.99536L6.00677 7.23961L9.24273 8.26996L7.06686 5.90468L9.87008 7.67287L8.49281 4.87348L10.6554 7.24837L10.1789 4.2225L11.5404 7.02794L12 4L12.4596 7.02794L13.8211 4.2225L13.3446 7.24837L15.5072 4.87348L14.1299 7.67287L16.9331 5.90468L14.7573 8.26996L17.9932 7.23961L15.1801 8.99536L18.6088 8.77926L15.3671 9.79527L18.7343 10.4095L15.3044 10.6104L18.3603 12.0093L14.9966 11.3802L17.5145 13.4601L14.4666 12.0477L16.2598 14.6543L13.7536 12.5633L14.6892 15.5033L12.9106 12.8888L12.9191 15.9441L12 13Z" clip-rule="evenodd"/><path id="white" fill="white" d="M2.12012 26.7453L40.4154 3.21484V10.8856L2.12012 26.7453Z"/><path id="gold" fill="#E2AE57" d="M2.12012 26.7453L40.4154 -2.78516V4.88561L2.12012 26.7453Z"/></g></g></g></g></g></g><defs><filter id="filter0_dd_91_26524" width="42" height="30" x="0" y="0" color-interpolation-filters="sRGB" filterUnits="userSpaceOnUse"><feFlood flood-opacity="0" result="BackgroundImageFix"/><feColorMatrix in="SourceAlpha" result="hardAlpha" values="0 0 0 0 0 0 0 0 0 0 0 0 0 0 0 0 0 0 127 0"/><feOffset dy="1"/><feGaussianBlur stdDeviation="1"/><feColorMatrix values="0 0 0 0 0.0627451 0 0 0 0 0.0941176 0 0 0 0 0.156863 0 0 0 0.06 0"/><feBlend in2="BackgroundImageFix" result="effect1_dropShadow_91_26524"/><feColorMatrix in="SourceAlpha" result="hardAlpha" values="0 0 0 0 0 0 0 0 0 0 0 0 0 0 0 0 0 0 127 0"/><feOffset dy="1"/><feGaussianBlur stdDeviation="1.5"/><feColorMatrix values="0 0 0 0 0.0627451 0 0 0 0 0.0941176 0 0 0 0 0.156863 0 0 0 0.1 0"/><feBlend in2="effect1_dropShadow_91_26524" result="effect2_dropShadow_91_26524"/><feBlend in="SourceGraphic" in2="effect2_dropShadow_91_26524" result="shape"/></filter><clipPath id="clip0_91_26524"><rect width="36" height="24" x="3" y="2" fill="white" rx="2"/></clipPath></defs></svg>

<svg xmlns="http://www.w3.org/2000/svg" fill="none" aria-hidden="true" viewBox="0 0 42 30"><g filter="url(#a)"><g clip-path="url(#b)"><mask id="c" width="36" height="24" x="3" y="2" maskUnits="userSpaceOnUse" style="mask-type:alpha"><path fill="#fff" d="M3 2h36v24H3z"/></mask><g mask="url(#c)"><path fill="#3D58DB" fill-rule="evenodd" d="M3 2v24h36V2H3Z" clip-rule="evenodd"/><mask id="d" width="36" height="24" x="3" y="2" maskUnits="userSpaceOnUse" style="mask-type:alpha"><path fill="#fff" fill-rule="evenodd" d="M3 2v24h36V2H3Z" clip-rule="evenodd"/></mask><g mask="url(#d)"><path fill="#F7FCFF" fill-rule="evenodd" d="m12 13-.92 2.944.01-3.055-1.78 2.614.936-2.94-2.506 2.091 1.793-2.606-3.048 1.412 2.518-2.08-3.363.63 3.056-1.4-3.43-.2 3.367-.615L5.39 8.78l3.429.216L6.007 7.24l3.236 1.03-2.176-2.365L9.87 7.673l-1.377-2.8 2.162 2.375-.476-3.026 1.361 2.806L12 4l.46 3.028 1.361-2.805-.476 3.025 2.162-2.375-1.377 2.8 2.803-1.768-2.176 2.365 3.236-1.03-2.813 1.755 3.429-.216-3.242 1.016 3.367.614-3.43.201 3.056 1.4-3.363-.63 2.518 2.08-3.048-1.412 1.793 2.606-2.506-2.09.935 2.94-1.778-2.615.008 3.055L12 13Z" clip-rule="evenodd"/><path fill="#fff" d="m2.12 26.745 38.295-23.53v7.67L2.12 26.746Z"/><path fill="#E2AE57" d="m2.12 26.745 38.295-29.53v7.67L2.12 26.746Z"/></g></g></g></g><defs><clipPath id="b"><rect width="36" height="24" x="3" y="2" fill="#fff" rx="2"/></clipPath><filter id="a" width="42" height="30" x="0" y="0" color-interpolation-filters="sRGB" filterUnits="userSpaceOnUse"><feFlood flood-opacity="0" result="BackgroundImageFix"/><feColorMatrix in="SourceAlpha" result="hardAlpha" values="0 0 0 0 0 0 0 0 0 0 0 0 0 0 0 0 0 0 127 0"/><feOffset dy="1"/><feGaussianBlur stdDeviation="1"/><feColorMatrix values="0 0 0 0 0.0627451 0 0 0 0 0.0941176 0 0 0 0 0.156863 0 0 0 0.06 0"/><feBlend in2="BackgroundImageFix" result="effect1_dropShadow_91_26524"/><feColorMatrix in="SourceAlpha" result="hardAlpha" values="0 0 0 0 0 0 0 0 0 0 0 0 0 0 0 0 0 0 127 0"/><feOffset dy="1"/><feGaussianBlur stdDeviation="1.5"/><feColorMatrix values="0 0 0 0 0.0627451 0 0 0 0 0.0941176 0 0 0 0 0.156863 0 0 0 0.1 0"/><feBlend in2="effect1_dropShadow_91_26524" result="effect2_dropShadow_91_26524"/><feBlend in="SourceGraphic" in2="effect2_dropShadow_91_26524" result="shape"/></filter></defs></svg>
